X:1
T:Jacob Kimball, 1793 Arranged by Bartholomew Brown, 1810 D minor                                    and by William Hauser, 1848
T:                               
T:Isaac Watts, 1707 (Hymn 86, Book 2)                          86. 86. (C. M.)                               
T:Tunbridge
T:Transcribed from Kimball's Rural Harmony, 1793.
%%score [ 1 2 3 4 ]
L:1/8
Q:1/4=90
M:2/4
K:F
V:1 treble nm="Tr." snm="Tr."
V:2 treble nm="C." snm="C."
V:3 treble-8 nm="T." snm="T."
V:4 bass nm="B." snm="B."
V:1
"^1. Our  sins, a   –   las, how strong they   be!    And  like     a           vio   –   lent       sea,  They break our du–ty,  Lord,  to        thee,    And  hur – ry     us    a – way." D2 | %1
 A3 F/E/ | D3 F | GF ED | C3 C | DE FA | B2 G2 | A3 A | A3 F/E/ | D3 F | GF ED | C3 ^C | DE FA | %13
 d2 c2 | d4 |: %15
 z2 z"^1. The waves of trouble, how they rise!  How  loud the  tempests roar!  But  death  shall  land  our  wea  –  ry    souls       Safe   on   the  heav'nly  shore." d | %16
 d2 d2 | e2 f2 | d2 f2 | e3 c | f2 f2 | e2 e>d | c3 A | F>E G>F | F3 F | F>E G>F | F3 z | %27
 A2 F/G/ F/E/ | D2 C2 | D4 :| %30
V:2
"^2. There, to  ful – fill  his sweet  com–mands,  Our  spee – dy      feet     shall    move  No    sin  shall   clog   our  wing–ed      zeal,  Or  cool  our  bur–ning  love." D2 | %1
 D3 D | D3 [DF] | F2 B2 | A3 A | F2 F2 | F/G/A E2 | E3 E | D3 D | D3 F | F2 B2 | A3 A | A2 F2 | %13
 A2 A2 | A4 |: %15
 z2 z"^2. There shall we sit, and sing, and tell  The  wonders  of  his  grace,  Till   heav'n–ly      raptures   fire     our     hearts,    And  smile  in   eve–ry   face." D | %16
 F2 F2 | G2 A2 | GF A2 | G3 F | A2 A2 | A2 G2 | A3 D | D2 D2 | D3 D | D2 D2 | D3 z | A2 FA | %28
 A2 A2 | A4 :| %30
V:3
"^3. For ev  –   er     his  dear  sa – cred     name   Shall  dwell  up – on       our   tongue,  And  Je – sus     and  sal – va –  tion        be     The  close  of   eve – ry  song." A2 | %1
 d3 A/G/ | F3 A | BA GF | E3 E | FG Ac | d/e/f ed | c3 c | d3 A/G/ | F3 A | BA GF | E3 E | FG Ad | %13
 F2 E2 | D4 |: %15
 z2 z"^3. A  thousand  years may roll around,  Our song shall  still  go     on;    To    bless    the      Fa – ther,   and     the      Son,      And  Spi – rit,  three  in  one." A | %16
 A2 A2 | c2 c2 | BA GF | G3 A | d2 d2 | c2 B2 | A3 A | A>G B>A | A3 d | A>G B>A | A3 z | %27
 d2 A/B/ A/G/ | F2 E2 | D4 :| %30
V:4
 D,2 | D,3 D, | D,3 D, | D,2 G,,2 | A,,3 A,, | D,2 D,2 | D,2 E,2 | A,,3 A,, | D,3 D, | D,3 D, | %10
 D,2 G,,2 | A,,3 A,, | D,2 D,2 | A,,2 A,,2 | D,4 |: z2 z D, | %16
"^______________________________________________________________________________\nArranged by Bartholomew Brown, 1810.  Top staff and middle staff exchanged; \nCounter\n part written.\nWords by Isaac Watts (Hymn 86, Book 2), except second half of stanza 3, from \nThe Hesperian Harp\n.\nBrown's arrangement further arranged by William Hauser, 1848, who removed all grace notes and accidentals." D,2 D,2 | %17
 C,2 F,2 | B,,2 F,2 | C,3 F, | D,2 D,2 | E,2 E,2 | A,,3 D, | D,2 D,2 | D,3 D, | D,2 D,2 | D,3 z | %27
 D,2 D,D, | A,2 A,,2 | D,4 :| %30

